build/images/content/icons/icon-10.svg

<svg width="100" height="100" viewBox="0 0 100 100" fill="none" xmlns="http://www.w3.org/2000/svg">
<path d="M79.3116 28.0595C79.3116 26.8595 79.5716 24.8795 80.3116 24.1295L82.0216 22.4095L77.5916 17.9795L77.3216 17.7095L72.8816 13.2695L71.1816 14.9895C70.4216 15.7395 68.4516 15.9895 67.2516 15.9895C66.0516 15.9895 64.6116 15.7595 62.4316 17.9895L18.8916 61.4995L16.8916 63.4995L16.7616 63.6295C15.5611 64.8314 14.8867 66.4607 14.8867 68.1595C14.8867 69.8583 15.5611 71.4876 16.7616 72.6895L22.6316 78.5595C23.8318 79.7595 25.4595 80.4336 27.1566 80.4336C28.8538 80.4336 30.4814 79.7595 31.6816 78.5595L31.8116 78.4295L33.8116 76.4295L77.3616 32.9195C79.5516 30.6895 79.3416 29.2595 79.3116 28.0595Z" stroke="#393C4C" stroke-width="2" stroke-linecap="round" stroke-linejoin="round"/>
<path d="M63.9767 31.6834L63.602 31.3086C61.2632 28.9689 57.4705 28.9683 55.1309 31.3071L36.0003 50.431C33.6606 52.7698 33.66 56.5625 35.9988 58.9021L36.3735 59.277C38.7124 61.6166 42.505 61.6173 44.8447 59.2785L63.9752 40.1545C66.3149 37.8157 66.3156 34.0231 63.9767 31.6834Z" stroke="#393C4C" stroke-width="2" stroke-linecap="round" stroke-linejoin="round"/>
<path d="M38.2005 72.0432L23.2734 57.1162L17.8146 62.5751L32.7416 77.5021L38.2005 72.0432Z" stroke="#393C4C" stroke-width="2" stroke-linecap="round" stroke-linejoin="round"/>
<path d="M26.8592 66.0845L26.7601 66.1834C26.1311 66.8119 26.1305 67.8313 26.759 68.4603L26.8579 68.5594C27.4863 69.1884 28.5057 69.189 29.1348 68.5606L29.2338 68.4616C29.8629 67.8332 29.8634 66.8138 29.235 66.1847L29.1361 66.0857C28.5077 65.4566 27.4883 65.4561 26.8592 66.0845Z" stroke="#393C4C" stroke-linejoin="round"/>
<path d="M55.81 44.4999L53.33 46.99V45.56L54.53 44.36L55.81 44.4999ZM50.56 44.02L48.8 41.9699L50.11 42.12L51.03 43.18V44.08L50.56 44.02ZM51.27 39.21V40.64L50.07 41.84L48.75 41.7L51.27 39.21ZM52.65 42.0299L53.31 42.0999V42.81L51.95 44.17L51.3 44.0999V43.39L52.65 42.0299ZM54.04 42.1899L55.8 44.1899L54.49 44.05L53.58 42.9799V42.09L54.04 42.1899Z" fill="#393C4C"/>
<path d="M56.5802 43.7396L55.9102 42.9496L56.5502 42.3096L57.2202 43.0995L56.5802 43.7396Z" fill="#393C4C"/>
<path d="M56.7789 39.8096L57.6989 40.8795V42.2996L55.9289 40.2996V39.7596L56.7789 39.8096ZM60.4689 39.8096L57.9889 42.2896V40.8696L59.1789 39.6996L60.4689 39.8096ZM55.1789 39.3596L53.4289 37.3596L54.7389 37.4995L55.6489 38.5695V39.4695L55.1789 39.3596ZM55.8989 34.5596V35.9796L54.6889 37.1895L53.3789 37.0396L55.8989 34.5596ZM57.2689 37.3696L57.9289 37.4395V38.1595L56.5589 39.5196L55.9089 39.4395V38.7296L57.2689 37.3696ZM58.6589 37.5396L60.4289 39.5396L59.1789 39.4395L58.2689 38.3696V37.4796L58.6589 37.5396ZM57.0889 37.0896L56.1789 36.0096V34.5896L57.9389 36.6396V37.1895L57.0889 37.0896Z" fill="#393C4C"/>
<path d="M81.3345 68.7244C83.575 59.2319 77.696 49.7204 68.2035 47.48C58.7109 45.2396 49.1995 51.1185 46.959 60.6111C44.7186 70.1036 50.5976 79.6151 60.0901 81.8555C69.5826 84.0959 79.0941 78.217 81.3345 68.7244Z" fill="white" stroke="#F91A2B" stroke-width="2" stroke-miterlimit="10"/>
<path d="M68.821 64.816L60.5845 69.9409C60.5266 69.9776 60.4598 69.9979 60.3913 69.9998C60.3228 70.0018 60.255 69.9852 60.1951 69.9519C60.1352 69.9185 60.0855 69.8697 60.0512 69.8105C60.0168 69.7513 59.9992 69.6839 60 69.6155V59.3792C60.0013 59.3117 60.0203 59.2456 60.0551 59.1877C60.09 59.1297 60.1394 59.0819 60.1985 59.049C60.2577 59.0161 60.3244 58.9992 60.3921 59C60.4599 59.0009 60.5262 59.0194 60.5845 59.0538L68.821 64.172C68.8758 64.2061 68.9209 64.2535 68.9523 64.3099C68.9836 64.3662 69 64.4295 69 64.494C69 64.5584 68.9836 64.6217 68.9523 64.6781C68.9209 64.7344 68.8758 64.7819 68.821 64.816Z" fill="#F91A2B" stroke="#F91A2B" stroke-width="2" stroke-miterlimit="10"/>
</svg>

<svg width="100" height="100" fill="none" xmlns="http://www.w3.org/2000/svg"><path d="M79.312 28.06c0-1.2.26-3.18 1-3.93l1.71-1.72-4.43-4.43-.27-.27-4.44-4.44-1.7 1.72c-.76.75-2.73 1-3.93 1-1.2 0-2.64-.23-4.82 2L18.892 61.5l-2 2-.13.13a6.41 6.41 0 000 9.06l5.87 5.87a6.4 6.4 0 009.05 0l.13-.13 2-2 43.55-43.51c2.19-2.23 1.98-3.66 1.95-4.86z" stroke="#393C4C" stroke-width="2" stroke-linecap="round" stroke-linejoin="round"/><path d="M63.977 31.683l-.375-.374a5.99 5.99 0 00-8.471-.002L36 50.431a5.99 5.99 0 00-.002 8.471l.374.375a5.99 5.99 0 008.472.002l19.13-19.125a5.99 5.99 0 00.002-8.47zM38.2 72.043L23.273 57.116l-5.458 5.46 14.927 14.926 5.459-5.459z" stroke="#393C4C" stroke-width="2" stroke-linecap="round" stroke-linejoin="round"/><path d="M26.86 66.085l-.1.098a1.61 1.61 0 00-.001 2.277l.099.1a1.61 1.61 0 002.277 0l.099-.098a1.61 1.61 0 00.001-2.277l-.099-.1a1.61 1.61 0 00-2.277 0z" stroke="#393C4C" stroke-linejoin="round"/><path d="M55.81 44.5l-2.48 2.49v-1.43l1.2-1.2 1.28.14zm-5.25-.48l-1.76-2.05 1.31.15.92 1.06v.9l-.47-.06zm.71-4.81v1.43l-1.2 1.2-1.32-.14 2.52-2.49zm1.38 2.82l.66.07v.71l-1.36 1.36-.65-.07v-.71l1.35-1.36zm1.39.16l1.76 2-1.31-.14-.91-1.07v-.89l.46.1zm2.54 1.55l-.67-.79.64-.64.67.79-.64.64zm.199-3.93l.92 1.07v1.42l-1.77-2v-.54l.85.05zm3.69 0l-2.48 2.48v-1.42l1.19-1.17 1.29.11zm-5.29-.45l-1.75-2 1.31.14.91 1.07v.9l-.47-.11zm.72-4.8v1.42l-1.21 1.21-1.31-.15 2.52-2.48zm1.37 2.81l.66.07v.72l-1.37 1.36-.65-.08v-.71l1.36-1.36zm1.39.17l1.77 2-1.25-.1-.91-1.07v-.89l.39.06zm-1.57-.45l-.91-1.08v-1.42l1.76 2.05v.55l-.85-.1z" fill="#393C4C"/><path d="M81.335 68.724c2.24-9.492-3.639-19.004-13.131-21.244-9.493-2.24-19.004 3.639-21.245 13.131-2.24 9.493 3.639 19.004 13.131 21.245 9.493 2.24 19.004-3.639 21.245-13.132z" fill="#fff" stroke="#F91A2B" stroke-width="2" stroke-miterlimit="10"/><path d="M68.821 64.816l-8.236 5.125a.38.38 0 01-.585-.326V59.38a.386.386 0 01.584-.325l8.237 5.118a.38.38 0 010 .644z" fill="#F91A2B" stroke="#F91A2B" stroke-width="2" stroke-miterlimit="10"/></svg>
